X: 9655
T: Dayne Thomas's
R: slide
M: 12/8
K: Adorian
|:"Am"A2B c2d e2f gfe|"G" d2 B BAB G2A BAG|
"Am"A2B c2d e2f gfe|"G" d2 B gdB BAG A3:|
"Am" a2e ede a2e ede|"G" g2B BAB g3 efg|
"Am" a2e ede a2e ede|"Em" EFG BAG "Am" A3 efg|
"Am" a2e ede a2e ede|"G" g2B BAB g3 [eg][fa][gb]|
"Am" [ac'][gb][fa] [gb][fa][ge] [fa][ge][df] [ge][df][ce]|"Em" [EG][FA][GB] [Bd][Ac][GB] "Am" [A3e3] [A2e2]B||

